X: 1
T: The Barmkin          1st tune:  AABB, 2nd tune: AAB; 1st tune: ABB
T: 88R 4C (Graded 2)
T: 
P: The Landlady of Inver Inn
C: Neil Gow, from RSCDS Graded 2, arr. T. Traub 9-30-1996
R: reel
M: 2/4
L: 1/8
K: F
|: c/B/|"F"AF FF|"C"EG Gc/B/|"F"AF FF|"F"Ac- "C"cf/c/|"F"AF FF|"C"EG Gc/B/|"Gm"B/A/G/F/ "C"F/E/D/C/|"F"DF- F:|
|: c|"F"f>g ag/f/|"C"eg ce|"F"f>g ag/f/|"C"eg- g>a|"Dm"f>g ag/f/|"C"eg "F"cf/c/|"Gm"B/A/G/F/ "C"F/E/D/C/|"F"DF- F:|
